X: 37659
T: Snowdrop Polka, The
R: barndance
M: 4/4
K: Gmajor
P: A
|:e|dGBd edBG|F2 c2 c3 A|FGAB cdef|gGBd gGBc|
dGB/c/d edBG|F2 c2 c3 A|FEDE FGAB|G2 g2 G3:|
P: B
|:B|cc c2 ee e^c|dd d2 g4|fffd a2 gf|gggd b3 B|
c2 c2 ee e2|dddB g4|^c2 Ac f2 e2|d2 c2 A3:|
P: A
|:e|dGBd edBG|Fc c2 c4|FGAB c2 d/e/f|gGBd g2 G2|
d2 Bd edBG|F2 c2 c4|D[^CA]DE FGAB|G2 g2 G3:|
P: C - trio
K: CMaj
G|E2 F2 ^F2 G2|c6 cB|A3 B dcBA|G4- GGAG|
^F2 d2 =F3 F|E2 c2 E3 E|D2 B2 A2 D/E/F|G2 G/A/G AG ^F=F|
E2 F2 ^F2 G2|c4- ccBc|A2 B2 c2 d2|e6 e2|
d2 g2 f3 A|G2 f2 e3 c|e/f/e d2 B2 G2|c4- ccc||

